public/assets/heat4.svg

<svg width="65" height="90" viewBox="0 0 65 90" fill="none" xmlns="http://www.w3.org/2000/svg">
<path d="M32.3921 89.4304C-6.8044 89.4304 -4.9738 46.0074 9.42875 30.5011C8.37884 34.3777 7.59815 44.0422 14.5706 47.8111C11.394 38.6042 7.97504 21.5634 38.3146 0C26.9272 15.5871 51.748 17.1754 45.4486 53.5452C54.6824 47.7572 49.9712 24.0401 43.4564 19.2752C68.2504 29.4781 79.7993 89.4304 32.3921 89.4304Z" fill="#F5AE3D"/>
<path d="M32.8776 87.8971C17.9097 87.8971 11.018 74.3022 17.3713 59.8458C16.8059 61.8918 18.6635 66.3337 23.4553 65.9029C21.7863 61.0303 20.0902 50.7466 34.7082 43.0742C32.043 52.7387 41.0076 54.7309 41.0345 64.9607C42.7844 64.2338 45.4226 61.6764 45.3957 56.9114C54.091 75.9982 45.8264 87.8971 32.8776 87.8971Z" fill="#FEF7EC"/>
</svg>

<svg width="65" height="90" fill="none" xmlns="http://www.w3.org/2000/svg"><path d="M32.392 89.43c-39.196 0-37.366-43.423-22.963-58.929-1.05 3.877-1.83 13.541 5.142 17.31C11.394 38.604 7.975 21.563 38.315 0c-11.388 15.587 13.433 17.175 7.134 53.545 9.233-5.788 4.522-29.505-1.993-34.27C68.25 29.478 79.8 89.43 32.392 89.43z" fill="#F5AE3D"/><path d="M32.878 87.897c-14.968 0-21.86-13.595-15.507-28.051-.565 2.046 1.293 6.488 6.084 6.057-1.669-4.873-3.365-15.156 11.253-22.829-2.665 9.665 6.3 11.657 6.327 21.887 1.75-.727 4.388-3.285 4.36-8.05 8.696 19.087.431 30.986-12.517 30.986z" fill="#FEF7EC"/></svg>
